X: 1
T: Here's to the Health
T: Laggan Burn
O: Arr Peter White
R: march
B: Hugh Foss "DANCES to SONG TUNES" 1966 (music: Peter White)
Z: 2010 by John Chambers <jc:trillian.mit.edu>
M: C
L: 1/8
K: G
BA \
| "G"G2D2 "D7"D2E2 | "G"G3A "C"B2e2 | "G"d2B2 "A7"A3G | "D"F2A2 A2BA |
| "G"G2D2 "D7"D2E2 | "G"G3A "C"B2e2 | "G"d2B2 "D7"A3B | "G"G4 G2 ||
Bc \
| "G"d2ef g2d2 | "C"e2g2 "G"d3B | "C"c3d "Am"edcB | "A7"B2A2 "D"A2BA |
| "G"G2D2 "D7"D2E2 | "G"G3A "C"B2e2 | "G"d2B2 "D7"A3B | "G"G4 G2 |]
